X:204
T:Reel
R:reel
B:Joyce, P. W.; "Old Irish Folk Music and Songs"
A:Westmeath
O:Irish
L:1/8
M:C
K:G
dc|\
BGGG G2 AG|FDDD GABc|dggg f2 dc|BdcA FDdc|
BGGG G2 AG|FGAB cABc|dgge faag|fdcA G2||Bc|
dggf d2 ga bgag fd d2|faag fd e2|fdcA FD D2|
DGGA B2 Bc|dgga bgag|f2 de fdcA|BdcA G2||


